rospo-icon-theme-classic-common/32x32/places/folder-yellow-locked.svg

<svg height="32" width="32" xmlns="http://www.w3.org/2000/svg"><rect height="16" opacity=".2" rx="1.25" width="25" x="3" y="12"/><path d="m3 21.75c0 .692.5575 1.25 1.25 1.25h22.5c.692 0 1.25-.558 1.25-1.25v-13.5c0-.6925-.558-1.25-1.25-1.25h-12.75v-.75c0-.6925-.557-1.25-1.25-1.25h-8.5c-.6925 0-1.25.5575-1.25 1.25" fill="#b58f1b"/><rect height="16" opacity=".2" rx="1.25" width="25" x="3" y="10"/><rect fill="#e4e4e4" height="10" rx="1.25" width="21" x="5" y="9"/><rect fill="#e2b322" height="16" rx="1.25" width="25" x="3" y="11"/><path d="m4.25 5c-.6925 0-1.25.5575-1.25 1.25v1c0-.6925.5575-1.25 1.25-1.25h8.5c.693 0 1.25.5575 1.25 1.25v.75h12.75c.692 0 1.25.5575 1.25 1.25v-1c0-.6925-.558-1.25-1.25-1.25h-12.75v-.75c0-.6925-.557-1.25-1.25-1.25z" fill="#fff" opacity=".1"/><path d="m16 14c-1.66 0-3 1.3-3 3v1h-.5c-.277 0-.5.223-.5.5v5c0 .277.223.5.5.5h7c .277 0 .5-.223.5-.5v-5c0-.277-.223-.5-.5-.5h-.5v-1c0-1.7-1.34-3-3-3zm0 1c1.11 0 2 .9 2 2v1h-4v-1c0-1.1.89-2 2-2z" fill="#4f3e0c"/><path d="m12 23.5v.5h.5c-.277 0-.5-.223-.5-.5z" fill="#3f51b5"/><path d="m20 23.5c0 .277-.223.5-.5.5h.5z" fill="#3f51b5"/></svg>

<svg xmlns="http://www.w3.org/2000/svg" width="32" height="32" version="1">
 <rect style="opacity:0.2" width="25" height="16" x="3" y="12" rx="1.25" ry="1.25"/>
 <path style="fill:#b58f1b" d="M 3,21.75 C 3,22.442 3.5575,23 4.25,23 H 26.75 C 27.442,23 28,22.442 28,21.75 V 8.25 C 28,7.5575 27.442,7 26.75,7 H 14 V 6.25 C 14,5.5575 13.443,5 12.75,5 H 4.25 C 3.5575,5 3,5.5575 3,6.25"/>
 <rect style="opacity:0.2" width="25" height="16" x="3" y="10" rx="1.25" ry="1.25"/>
 <rect style="fill:#dcdcdc" width="21" height="10" x="5" y="9" rx="1.25" ry="1.25"/>
 <rect style="fill:#e2b322" width="25" height="16" x="3" y="11" rx="1.25" ry="1.25"/>
 <path style="opacity:0.1;fill:#ffffff" d="M 4.25 5 C 3.5575 5 3 5.5575 3 6.25 L 3 7.25 C 3 6.5575 3.5575 6 4.25 6 L 12.75 6 C 13.443 6 14 6.5575 14 7.25 L 14 8 L 26.75 8 C 27.442 8 28 8.5575 28 9.25 L 28 8.25 C 28 7.5575 27.442 7 26.75 7 L 14 7 L 14 6.25 C 14 5.5575 13.443 5 12.75 5 L 4.25 5 z"/>
 <path style="fill:#4f3e0c" d="M 16 14 C 14.34 14 13 15.3 13 17 L 13 18 L 12.5 18 C 12.223 18 12 18.223 12 18.5 L 12 23.5 C 12 23.777 12.223 24 12.5 24 L 19.5 24 C 19.777 24 20 23.777 20 23.5 L 20 18.5 C 20 18.223 19.777 18 19.5 18 L 19 18 L 19 17 C 19 15.3 17.66 14 16 14 z M 16 15 C 17.11 15 18 15.9 18 17 L 18 18 L 14 18 L 14 17 C 14 15.9 14.89 15 16 15 z"/>
 <path style="fill:#4f3e0c;fill:#3f51b5" d="M 12,23.5 V 24 H 12.5 C 12.223,24 12,23.777 12,23.5 Z"/>
 <path style="fill:#4f3e0c;fill:#3f51b5" d="M 20,23.5 C 20,23.777 19.777,24 19.5,24 H 20 Z"/>
</svg>
